;FLAVOR:UltiGCode
;TIME:3082
;MATERIAL:4939
;MATERIAL2:0
;NOZZLE_DIAMETER:0.4
;MINX:86.836
;MINY:90.218
;MINZ:0.27
;MAXX:135.341
;MAXY:136.153
;MAXZ:29.82
;Generated with Cura_SteamEngine main
M82 ;absolute extrusion mode
G0 F3000 Y50 ;avoid prime blob
G92 E0
G92 E0
G10
;LAYER_COUNT:198
;LAYER:0
M107
G0 F4500 X94.271 Y93.598 Z0.27
G0 X88.862 Y104.408
;TYPE:SKIRT
G11
G1 F1800 X89.412 Y103.681 E0.09845
G1 X89.919 Y103.076 E0.1837
G1 X90.486 Y102.526 E0.26902
G1 X91.148 Y101.997 E0.36053
G1 X91.112 Y101.489 E0.41554
G1 X91.141 Y100.571 E0.51473
G1 X91.309 Y99.401 E0.64239
G1 X91.461 Y98.626 E0.72768
G1 X91.781 Y97.629 E0.84077
G1 X92.104 Y96.816 E0.93525
G1 X92.432 Y96.098 E1.0205
G1 X92.832 Y95.417 E1.1058
G1 X93.208 Y94.891 E1.17563
G1 X93.753 Y94.194 E1.27118
G1 X94.271 Y93.598 E1.35646
G1 X95.114 Y92.838 E1.47904
G1 X95.803 Y92.303 E1.57326
G1 X96.451 Y91.851 E1.65858
G1 X97.141 Y91.467 E1.74387
G1 X97.638 Y91.243 E1.80274
G1 X98.424 Y90.922 E1.89444
G1 X99.169 Y90.661 E1.97969
G1 X100.049 Y90.449 E2.07745
G1 X101.36 Y90.282 E2.22018
G1 X102.147 Y90.222 E2.30542
G1 X102.937 Y90.241 E2.39077
G1 X103.72 Y90.341 E2.47602
G1 X104.489 Y90.519 E2.56127
G1 X105.237 Y90.774 E2.64662
G1 X105.954 Y91.104 E2.73186
G1 X106.635 Y91.504 E2.81716
G1 X107.272 Y91.971 E2.90246
G1 X107.976 Y92.606 E3.00485
G1 X108.865 Y92.424 E3.10286
G1 X109.747 Y92.333 E3.19862
G1 X113.022 Y92.333 E3.55232
G1 X113.811 Y92.373 E3.63764
G1 X114.591 Y92.492 E3.72285
G1 X115.172 Y92.643 E3.78769
G1 X115.872 Y92.02 E3.88889
G1 X116.512 Y91.558 E3.97414
G1 X117.196 Y91.162 E4.0595
G1 X117.915 Y90.838 E4.14467
G1 X118.665 Y90.588 E4.23005
G1 X119.753 Y90.367 E4.34996
G1 X120.424 Y90.28 E4.42303
G1 X121.211 Y90.218 E4.50829
G1 X122.151 Y90.239 E4.60984
G1 X123.326 Y90.406 E4.73801
G1 X124.101 Y90.557 E4.82328
G1 X125.187 Y90.911 E4.94665
G1 X126.032 Y91.257 E5.04526
G1 X126.746 Y91.593 E5.13048
G1 X127.545 Y92.072 E5.23109
G1 X128.528 Y92.825 E5.36483
G1 X129.129 Y93.337 E5.4501
G1 X129.768 Y94 E5.54954
G1 X130.495 Y94.955 E5.67917
G1 X130.941 Y95.606 E5.76439
G1 X131.472 Y96.639 E5.88983
G1 X131.821 Y97.463 E5.98648
G1 X132.092 Y98.205 E6.07179
G1 X132.32 Y99.099 E6.17143
G1 X132.488 Y100.348 E6.30754
G1 X132.554 Y101.135 E6.39284
G1 X132.54 Y101.925 E6.47817
G1 X132.483 Y102.465 E6.53681
G1 X133.246 Y103.254 E6.65535
G1 X133.73 Y103.858 E6.73894
G1 X134.18 Y104.507 E6.82424
G1 X134.561 Y105.198 E6.90946
G1 X134.871 Y105.925 E6.99481
G1 X135.106 Y106.679 E7.08011
G1 X135.263 Y107.453 E7.1654
G1 X135.341 Y108.239 E7.25071
G1 X135.339 Y109.028 E7.33592
G1 X135.258 Y109.814 E7.42126
G1 X135.097 Y110.587 E7.50653
G1 X134.859 Y111.34 E7.59182
G1 X134.546 Y112.065 E7.67711
G1 X134.162 Y112.755 E7.76239
G1 X133.709 Y113.402 E7.84769
G1 X133.194 Y114 E7.93293
G1 X132.62 Y114.543 E8.01826
G1 X131.995 Y115.025 E8.1035
G1 X131.324 Y115.442 E8.18882
G1 X130.615 Y115.789 E8.27407
G1 X129.874 Y116.062 E8.35936
G1 X129.273 Y116.216 E8.42637
G1 X128.821 Y117.414 E8.56465
G1 X127.565 Y120.107 E8.88557
G1 X127.195 Y120.805 E8.97089
G1 X126.757 Y121.462 E9.05617
G1 X126.255 Y122.071 E9.14141
G1 X125.693 Y122.626 E9.22671
G1 X125.079 Y123.122 E9.31196
G1 X124.417 Y123.553 E9.39727
G1 X123.804 Y123.869 E9.47176
G1 X123.75 Y124.514 E9.54166
G1 X123.605 Y125.29 E9.62692
G1 X123.382 Y126.048 E9.71225
G1 X123.084 Y126.779 E9.79751
G1 X122.714 Y127.477 E9.88283
G1 X122.274 Y128.133 E9.96814
G1 X121.757 Y128.755 E10.05549
G1 X121.412 Y129.611 E10.15516
G1 X121.077 Y130.326 E10.24044
G1 X120.672 Y131.004 E10.32573
G1 X120.347 Y131.453 E10.38559
G1 X119.777 Y132.186 E10.48588
G1 X119.262 Y132.784 E10.57111
G1 X118.384 Y133.574 E10.69867
G1 X117.741 Y134.07 E10.78637
G1 X117.092 Y134.52 E10.87166
G1 X116.401 Y134.902 E10.95694
G1 X115.895 Y135.128 E11.01679
G1 X115.01 Y135.485 E11.11985
G1 X114.264 Y135.743 E11.2051
G1 X113.194 Y135.973 E11.3233
G1 X112.437 Y136.081 E11.40588
G1 X111.65 Y136.153 E11.49124
G1 X110.722 Y136.144 E11.59146
G1 X109.431 Y135.98 E11.73201
G1 X108.654 Y135.841 E11.81726
G1 X107.768 Y135.589 E11.91674
G1 X106.593 Y135.105 E12.05399
G1 X105.879 Y134.767 E12.1393
G1 X105.082 Y134.286 E12.23984
G1 X104.116 Y133.541 E12.37159
G1 X103.516 Y133.028 E12.45685
G1 X102.875 Y132.355 E12.55722
G1 X102.162 Y131.416 E12.68456
G1 X101.717 Y130.763 E12.7699
G1 X101.284 Y129.966 E12.86786
G1 X100.805 Y128.795 E13.0045
G1 X100.543 Y128.05 E13.08979
G1 X100.302 Y126.941 E13.21236
G1 X99.99 Y124.749 E13.45148
G1 X99.227 Y124.389 E13.5426
G1 X98.55 Y123.982 E13.62791
G1 X97.918 Y123.508 E13.71323
G1 X97.337 Y122.973 E13.79853
G1 X96.813 Y122.382 E13.88383
G1 X96.149 Y121.41 E14.01096
G1 X94.454 Y118.474 E14.3771
G1 X94.107 Y118.467 E14.41458
G1 X93.323 Y118.374 E14.49985
G1 X92.552 Y118.202 E14.58516
G1 X91.803 Y117.953 E14.67041
G1 X91.082 Y117.629 E14.75578
G1 X90.398 Y117.234 E14.84108
G1 X89.758 Y116.772 E14.92633
G1 X89.167 Y116.248 E15.01163
G1 X88.633 Y115.666 E15.09694
G1 X88.16 Y115.034 E15.18219
G1 X87.753 Y114.357 E15.2675
G1 X87.417 Y113.642 E15.35283
G1 X87.155 Y112.897 E15.43812
G1 X86.97 Y112.13 E15.52333
G1 X86.863 Y111.347 E15.60868
G1 X86.836 Y110.558 E15.69394
G1 X86.903 Y109.655 E15.79173
G1 X87.003 Y108.904 E15.87356
G1 X87.147 Y108.128 E15.95879
G1 X87.407 Y107.238 E16.05893
G1 X87.899 Y106.074 E16.19541
G1 X88.243 Y105.363 E16.28072
G1 X88.862 Y104.408 E16.40363
G10
G0 F4500 X89.236 Y110.319
G11
G1 F1800 X89.382 Y109.221 E16.52325
G1 X89.508 Y108.577 E16.59412
G1 X89.762 Y107.83 E16.67934
G1 X90.109 Y107.01 E16.7755
G1 X90.401 Y106.421 E16.8465
G1 X90.776 Y105.856 E16.91974
G1 X91.326 Y105.129 E17.01819
G1 X91.753 Y104.63 E17.08912
G1 X92.347 Y104.101 E17.17503
G1 X93.053 Y103.56 E17.27109
G1 X93.689 Y103.132 E17.35388
G1 X93.55 Y101.988 E17.47834
G1 X93.511 Y101.332 E17.54931
G1 X93.566 Y100.571 E17.63171
G1 X93.685 Y99.742 E17.72216
G1 X93.818 Y99.098 E17.79318
G1 X94.012 Y98.515 E17.85954
G1 X94.335 Y97.702 E17.95402
G1 X94.614 Y97.108 E18.0249
G1 X95.099 Y96.37 E18.12027
G1 X95.644 Y95.673 E18.21583
G1 X96.079 Y95.181 E18.28676
G1 X96.586 Y94.734 E18.35975
G1 X97.275 Y94.199 E18.45397
G1 X97.818 Y93.828 E18.52499
G1 X98.545 Y93.465 E18.61275
G1 X99.331 Y93.144 E18.70444
G1 X99.954 Y92.933 E18.77548
G1 X100.69 Y92.786 E18.85654
G1 X101.663 Y92.662 E18.96247
G1 X102.319 Y92.619 E19.03347
G1 X102.975 Y92.656 E19.10443
G1 X103.621 Y92.772 E19.17532
G1 X104.249 Y92.966 E19.24631
G1 X104.849 Y93.234 E19.31728
G1 X105.411 Y93.573 E19.38816
G1 X105.928 Y93.978 E19.45909
G1 X106.393 Y94.443 E19.53011
G1 X106.797 Y94.961 E19.60106
G1 X107.167 Y95.577 E19.67866
G1 X107.581 Y95.331 E19.73067
G1 X108.183 Y95.067 E19.80167
G1 X108.812 Y94.877 E19.87263
G1 X109.459 Y94.766 E19.94353
G1 X110.052 Y94.733 E20.00767
G1 X113.022 Y94.733 E20.32843
G1 X113.678 Y94.773 E20.39941
G1 X114.324 Y94.892 E20.47035
G1 X114.951 Y95.089 E20.54133
G1 X115.549 Y95.361 E20.61228
G1 X115.952 Y95.607 E20.66327
G1 X116.4 Y94.911 E20.75267
G1 X116.819 Y94.406 E20.82354
G1 X117.297 Y93.955 E20.89451
G1 X117.827 Y93.566 E20.96551
G1 X118.399 Y93.243 E21.03646
G1 X119.007 Y92.993 E21.10746
G1 X119.759 Y92.786 E21.19169
G1 X120.733 Y92.66 E21.29776
G1 X121.388 Y92.615 E21.36867
G1 X122.185 Y92.668 E21.45494
G1 X122.989 Y92.782 E21.54264
G1 X123.633 Y92.914 E21.61363
G1 X124.277 Y93.132 E21.68706
G1 X125.122 Y93.478 E21.78568
G1 X125.714 Y93.763 E21.85664
G1 X126.359 Y94.188 E21.94006
G1 X127.068 Y94.731 E22.03651
G1 X127.565 Y95.161 E22.10749
G1 X128.081 Y95.746 E22.19173
G1 X128.586 Y96.409 E22.28174
G1 X128.951 Y96.955 E22.35267
G1 X129.262 Y97.575 E22.42758
G1 X129.611 Y98.399 E22.52423
G1 X129.83 Y99.018 E22.59514
G1 X129.991 Y99.785 E22.67978
G1 X130.11 Y100.669 E22.77612
G1 X130.158 Y101.324 E22.84705
G1 X130.11 Y102.106 E22.93166
G1 X129.999 Y102.935 E23.02199
G1 X129.88 Y103.543 E23.0889
G1 X130.641 Y104.089 E23.19005
G1 X131.14 Y104.518 E23.26113
G1 X131.743 Y105.194 E23.35896
G1 X132.197 Y105.866 E23.44654
G1 X132.497 Y106.45 E23.51745
G1 X132.723 Y107.067 E23.58842
G1 X132.873 Y107.707 E23.65941
G1 X132.944 Y108.36 E23.73035
G1 X132.935 Y109.017 E23.80131
G1 X132.847 Y109.668 E23.87226
G1 X132.68 Y110.303 E23.94317
G1 X132.437 Y110.914 E24.01419
G1 X132.122 Y111.49 E24.08509
G1 X131.739 Y112.024 E24.15606
G1 X131.294 Y112.507 E24.22699
G1 X130.794 Y112.933 E24.29793
G1 X130.245 Y113.295 E24.36895
G1 X129.657 Y113.588 E24.43991
G1 X129.038 Y113.807 E24.51082
G1 X128.397 Y113.949 E24.58172
G1 X127.743 Y114.013 E24.65269
G1 X127.146 Y113.998 E24.71719
G1 X127.133 Y114.571 E24.77909
G1 X127.038 Y115.221 E24.85004
G1 X126.865 Y115.855 E24.92101
G1 X126.646 Y116.399 E24.98435
G1 X125.39 Y119.092 E25.30527
G1 X125.077 Y119.67 E25.37626
G1 X124.695 Y120.205 E25.44725
G1 X124.252 Y120.69 E25.51819
G1 X123.753 Y121.117 E25.58912
G1 X123.206 Y121.481 E25.66009
G1 X122.619 Y121.775 E25.73099
G1 X122 Y121.996 E25.80197
G1 X121.258 Y122.164 E25.88414
G1 X121.376 Y122.783 E25.95219
G1 X121.42 Y123.438 E26.02309
G1 X121.384 Y124.094 E26.09405
G1 X121.269 Y124.741 E26.16502
G1 X121.076 Y125.369 E26.23597
G1 X120.808 Y125.969 E26.30694
G1 X120.469 Y126.532 E26.37792
G1 X120.065 Y127.05 E26.44887
G1 X119.674 Y127.44 E26.50851
G1 X119.518 Y127.901 E26.56107
G1 X119.19 Y128.705 E26.65485
G1 X118.905 Y129.297 E26.72581
G1 X118.453 Y129.98 E26.81426
G1 X117.883 Y130.713 E26.91455
G1 X117.449 Y131.206 E26.98548
G1 X116.918 Y131.674 E27.06193
G1 X116.275 Y132.17 E27.14963
G1 X115.732 Y132.539 E27.22053
G1 X114.997 Y132.902 E27.30907
G1 X114.112 Y133.259 E27.41213
G1 X113.489 Y133.467 E27.48306
G1 X112.855 Y133.597 E27.55296
G1 X112.098 Y133.705 E27.63555
G1 X111.443 Y133.758 E27.70652
G1 X110.656 Y133.716 E27.79163
G1 X109.733 Y133.599 E27.89212
G1 X109.087 Y133.477 E27.96312
G1 X108.355 Y133.235 E28.04638
G1 X107.508 Y132.886 E28.14532
G1 X106.917 Y132.599 E28.21627
G1 X106.267 Y132.169 E28.30044
G1 X105.581 Y131.64 E28.394
G1 X105.087 Y131.208 E28.46488
G1 X104.578 Y130.629 E28.54814
G1 X104.074 Y129.965 E28.63817
G1 X103.709 Y129.418 E28.70919
G1 X103.377 Y128.745 E28.79023
G1 X103.026 Y127.887 E28.89035
G1 X102.815 Y127.265 E28.96129
G1 X102.678 Y126.603 E29.0343
G1 X102.402 Y124.663 E29.24593
G1 X102.349 Y124.008 E29.3169
G1 X102.376 Y123.351 E29.38792
G1 X102.452 Y122.891 E29.43827
G1 X101.786 Y122.794 E29.51096
G1 X101.153 Y122.619 E29.58189
G1 X100.546 Y122.368 E29.65282
G1 X99.973 Y122.046 E29.72381
G1 X99.444 Y121.656 E29.79479
G1 X98.967 Y121.205 E29.86569
G1 X98.547 Y120.7 E29.93663
G1 X98.228 Y120.21 E29.99977
G1 X96.743 Y117.637 E30.32062
G1 X96.45 Y117.049 E30.39157
G1 X96.23 Y116.43 E30.46252
G1 X96.105 Y115.87 E30.52448
G1 X95.785 Y115.961 E30.56042
G1 X95.136 Y116.062 E30.63135
G1 X94.479 Y116.083 E30.70234
G1 X93.825 Y116.024 E30.77326
G1 X93.183 Y115.886 E30.84418
G1 X92.562 Y115.671 E30.91516
G1 X91.972 Y115.383 E30.98606
G1 X91.421 Y115.024 E31.05709
G1 X90.918 Y114.602 E31.128
G1 X90.47 Y114.122 E31.19891
G1 X90.083 Y113.59 E31.26996
G1 X89.764 Y113.016 E31.34088
G1 X89.517 Y112.407 E31.41186
G1 X89.346 Y111.773 E31.48277
G1 X89.253 Y111.123 E31.55369
G1 X89.236 Y110.319 E31.64054
G0 F4500 X89.636 Y110.613
G1 F1800 X89.679 Y110.025 E31.70421
G1 X89.779 Y109.274 E31.78604
G1 X89.902 Y108.654 E31.8543
G1 X90.13 Y107.985 E31.93064
G1 X90.477 Y107.165 E32.0268
G1 X90.76 Y106.6 E32.09505
G1 X91.095 Y106.097 E32.16031
G1 X91.645 Y105.37 E32.25877
G1 X92.057 Y104.891 E32.327
G1 X92.591 Y104.418 E32.40405
G1 X93.297 Y103.877 E32.50011
G1 X93.822 Y103.525 E32.56837
G1 X94.159 Y103.358 E32.60899
G1 X94.057 Y102.847 E32.66527
G1 X93.947 Y101.94 E32.76394
G1 X93.911 Y101.309 E32.8322
G1 X93.962 Y100.628 E32.90596
G1 X94.081 Y99.799 E32.99641
G1 X94.21 Y99.18 E33.06469
G1 X94.383 Y98.663 E33.12357
G1 X94.706 Y97.85 E33.21805
G1 X94.976 Y97.278 E33.28636
G1 X95.414 Y96.616 E33.37209
G1 X95.959 Y95.919 E33.46765
G1 X96.379 Y95.447 E33.53588
G1 X96.831 Y95.05 E33.60086
G1 X97.52 Y94.515 E33.69507
G1 X98.043 Y94.159 E33.7634
G1 X98.697 Y93.835 E33.84222
G1 X99.483 Y93.514 E33.93391
G1 X100.082 Y93.313 E34.00215
G1 X100.741 Y93.183 E34.07469
G1 X101.714 Y93.059 E34.18063
G1 X102.345 Y93.019 E34.24891
G1 X102.976 Y93.059 E34.3172
G1 X103.596 Y93.178 E34.38538
G1 X104.197 Y93.374 E34.45365
G1 X104.769 Y93.645 E34.52201
G1 X105.301 Y93.986 E34.59026
G1 X105.786 Y94.391 E34.6585
G1 X106.217 Y94.854 E34.72681
G1 X106.585 Y95.368 E34.79509
G1 X107.019 Y96.169 E34.89348
G1 X107.402 Y95.893 E34.94446
G1 X107.958 Y95.593 E35.01269
G1 X108.547 Y95.365 E35.08091
G1 X109.161 Y95.213 E35.14922
G1 X110.052 Y95.133 E35.24583
G1 X113.022 Y95.133 E35.56659
G1 X113.653 Y95.173 E35.63488
G1 X114.274 Y95.292 E35.70317
G1 X114.874 Y95.489 E35.77137
G1 X115.446 Y95.76 E35.83973
G1 X116.126 Y96.194 E35.92685
G1 X116.465 Y95.535 E36.00689
G1 X116.823 Y95.014 E36.07516
G1 X117.244 Y94.543 E36.14339
G1 X117.722 Y94.128 E36.21175
G1 X118.247 Y93.777 E36.27996
G1 X118.813 Y93.495 E36.34825
G1 X119.41 Y93.287 E36.41653
G1 X120.113 Y93.144 E36.49401
G1 X120.784 Y93.057 E36.56708
G1 X121.415 Y93.015 E36.63538
G1 X122.129 Y93.065 E36.71268
G1 X122.933 Y93.179 E36.80038
G1 X123.552 Y93.307 E36.86865
G1 X124.126 Y93.502 E36.93412
G1 X124.971 Y93.848 E37.03274
G1 X125.539 Y94.124 E37.10094
G1 X126.116 Y94.505 E37.17561
G1 X126.825 Y95.048 E37.27206
G1 X127.302 Y95.464 E37.34042
G1 X127.763 Y95.988 E37.41579
G1 X128.268 Y96.651 E37.5058
G1 X128.618 Y97.177 E37.57404
G1 X128.894 Y97.731 E37.64088
G1 X129.243 Y98.555 E37.73753
G1 X129.452 Y99.151 E37.80574
G1 X129.594 Y99.838 E37.88151
G1 X129.713 Y100.722 E37.97784
G1 X129.758 Y101.353 E38.04616
G1 X129.714 Y102.053 E38.12191
G1 X129.603 Y102.882 E38.21224
G1 X129.424 Y103.778 E38.31092
G1 X129.789 Y103.973 E38.35561
G1 X130.4 Y104.408 E38.43662
G1 X130.878 Y104.821 E38.50484
G1 X131.429 Y105.442 E38.5945
G1 X131.865 Y106.09 E38.67885
G1 X132.149 Y106.655 E38.74715
G1 X132.36 Y107.251 E38.81543
G1 X132.494 Y107.868 E38.88362
G1 X132.549 Y108.498 E38.95192
G1 X132.524 Y109.13 E39.02023
G1 X132.419 Y109.753 E39.08846
G1 X132.237 Y110.359 E39.1568
G1 X131.979 Y110.936 E39.22506
G1 X131.651 Y111.476 E39.2933
G1 X131.257 Y111.971 E39.36162
G1 X130.805 Y112.412 E39.42982
G1 X130.3 Y112.792 E39.49808
G1 X129.751 Y113.106 E39.56638
G1 X129.167 Y113.347 E39.63462
G1 X128.557 Y113.514 E39.70292
G1 X127.931 Y113.601 E39.77118
G1 X127.299 Y113.61 E39.83944
G1 X126.717 Y113.543 E39.90271
G1 X126.752 Y114.144 E39.96773
G1 X126.709 Y114.775 E40.03604
G1 X126.586 Y115.395 E40.1043
G1 X126.283 Y116.23 E40.20024
G1 X125.027 Y118.923 E40.52116
G1 X124.725 Y119.478 E40.5894
G1 X124.354 Y119.99 E40.65768
G1 X123.922 Y120.452 E40.72599
G1 X123.435 Y120.855 E40.79426
G1 X122.901 Y121.194 E40.86257
G1 X122.329 Y121.462 E40.9308
G1 X121.727 Y121.656 E40.9991
G1 X121.106 Y121.773 E41.06735
G1 X120.729 Y121.795 E41.10814
G1 X120.898 Y122.376 E41.17349
G1 X120.998 Y123 E41.24174
G1 X121.017 Y123.632 E41.31002
G1 X120.957 Y124.261 E41.37826
G1 X120.818 Y124.878 E41.44657
G1 X120.603 Y125.472 E41.5148
G1 X120.314 Y126.034 E41.58305
G1 X119.956 Y126.555 E41.65132
G1 X119.535 Y127.027 E41.71963
G1 X119.334 Y127.202 E41.74841
G1 X119.148 Y127.75 E41.81091
G1 X118.82 Y128.554 E41.90469
G1 X118.544 Y129.123 E41.97299
G1 X118.137 Y129.734 E42.05228
G1 X117.567 Y130.467 E42.15256
G1 X117.148 Y130.941 E42.22088
G1 X116.674 Y131.357 E42.289
G1 X116.031 Y131.853 E42.3767
G1 X115.507 Y132.207 E42.445
G1 X114.847 Y132.531 E42.5244
G1 X113.962 Y132.888 E42.62746
G1 X113.362 Y133.087 E42.69574
G1 X112.798 Y133.201 E42.75788
G1 X112.041 Y133.309 E42.84046
G1 X111.411 Y133.358 E42.90871
G1 X110.706 Y133.319 E42.98497
G1 X109.783 Y133.202 E43.08545
G1 X109.162 Y133.083 E43.15374
G1 X108.507 Y132.865 E43.22829
G1 X107.66 Y132.516 E43.32723
G1 X107.092 Y132.239 E43.39548
G1 X106.512 Y131.852 E43.47078
G1 X105.826 Y131.323 E43.56434
G1 X105.351 Y130.907 E43.63253
G1 X104.896 Y130.387 E43.70716
G1 X104.392 Y129.723 E43.79719
G1 X104.043 Y129.196 E43.86545
G1 X103.747 Y128.593 E43.938
G1 X103.396 Y127.735 E44.03812
G1 X103.194 Y127.136 E44.10639
G1 X103.074 Y126.546 E44.17141
G1 X102.798 Y124.606 E44.38304
